bundles/org.openhab.ui.habpanel/web/assets/icons/freepik-housethings/opened-window-door.svg

<svg xmlns="http://www.w3.org/2000/svg" width="573.75" height="573.75" style="enable-background:new 0 0 573.75 573.75" xml:space="preserve"><path d="M392.062 90.844h19.126V71.719H153v19.125h28.688v9.562h210.374zM392.062 473.344H181.688v9.562H153v19.125h258.188v-19.125h-19.126zM181.688 463.781h210.375V109.969H181.688v353.812zm114.75-325.125h66.938v95.625h-66.938v-95.625zm0 105.188h66.938v95.625h-66.938v-95.625zm0 105.187h66.938v95.625h-66.938v-95.625zm-86.063-210.375h66.938v95.625h-66.938v-95.625zm0 105.188h66.938v95.625h-66.938v-95.625zm0 105.187h66.938v95.625h-66.938v-95.625zM172.125 473.344V100.407H0v372.938h172.125zm-153-334.688H153v9.562H19.125v-9.562zm0 19.125H153v9.562H19.125v-9.562zm0 19.125H153v9.562H19.125v-9.562zm0 19.125H153v9.562H19.125v-9.562zm0 19.125H153v9.562H19.125v-9.562zm0 19.125H153v9.562H19.125v-9.562zm0 19.125H153v9.562H19.125v-9.562zm0 57.375H153v9.562H19.125v-9.562zm0 19.125H153v9.562H19.125v-9.562zm0 19.125H153v9.562H19.125v-9.562zm0 19.125H153v9.562H19.125v-9.562zm0 19.125H153v9.562H19.125v-9.562zm0 19.125H153v9.562H19.125v-9.562zm0 28.688v-9.562H153v9.562H19.125zM401.625 100.406v372.938H573.75V100.406H401.625zm19.125 38.25h133.875v9.562H420.75v-9.562zm0 19.125h133.875v9.562H420.75v-9.562zm0 19.125h133.875v9.562H420.75v-9.562zm0 19.125h133.875v9.562H420.75v-9.562zm0 19.125h133.875v9.562H420.75v-9.562zm0 19.125h133.875v9.562H420.75v-9.562zm0 19.125h133.875v9.562H420.75v-9.562zm0 57.375h133.875v9.562H420.75v-9.562zm0 19.125h133.875v9.562H420.75v-9.562zm0 19.125h133.875v9.562H420.75v-9.562zm0 19.125h133.875v9.562H420.75v-9.562zm0 19.125h133.875v9.562H420.75v-9.562zm0 19.125h133.875v9.562H420.75v-9.562zm0 19.125h133.875v9.562H420.75v-9.562z"/></svg>

<?xml version="1.0" encoding="iso-8859-1"?>
<!-- Generator: Adobe Illustrator 16.0.0, SVG Export Plug-In . SVG Version: 6.00 Build 0)  -->
<!DOCTYPE svg PUBLIC "-//W3C//DTD SVG 1.1//EN" "http://www.w3.org/Graphics/SVG/1.1/DTD/svg11.dtd">
<svg version="1.1" id="Capa_1" xmlns="http://www.w3.org/2000/svg" xmlns:xlink="http://www.w3.org/1999/xlink" x="0px" y="0px"
	 width="573.75px" height="573.75px" viewBox="0 0 573.75 573.75" style="enable-background:new 0 0 573.75 573.75;"
	 xml:space="preserve">
<g>
	<g>
		<polygon points="392.062,90.844 411.188,90.844 411.188,71.719 153,71.719 153,90.844 181.688,90.844 181.688,100.406 
			392.062,100.406 		"/>
		<polygon points="392.062,473.344 181.688,473.344 181.688,482.906 172.125,482.906 153,482.906 153,502.031 411.188,502.031 
			411.188,482.906 392.062,482.906 		"/>
		<path d="M181.688,463.781h210.375V109.969H181.688V463.781z M296.438,138.656h66.938v95.625h-66.938V138.656z M296.438,243.844
			h66.938v95.625h-66.938V243.844z M296.438,349.031h66.938v95.625h-66.938V349.031z M210.375,138.656h66.938v95.625h-66.938
			V138.656z M210.375,243.844h66.938v95.625h-66.938V243.844z M210.375,349.031h66.938v95.625h-66.938V349.031z"/>
		<path d="M172.125,473.344V109.969v-9.562H153H0v372.938h153H172.125z M19.125,138.656H153v9.562H19.125V138.656z M19.125,157.781
			H153v9.562H19.125V157.781z M19.125,176.906H153v9.562H19.125V176.906z M19.125,196.031H153v9.562H19.125V196.031z
			 M19.125,215.156H153v9.562H19.125V215.156z M19.125,234.281H153v9.562H19.125V234.281z M19.125,253.406H153v9.562H19.125V253.406
			z M19.125,310.781H153v9.562H19.125V310.781z M19.125,329.906H153v9.562H19.125V329.906z M19.125,349.031H153v9.562H19.125
			V349.031z M19.125,368.156H153v9.562H19.125V368.156z M19.125,387.281H153v9.562H19.125V387.281z M19.125,406.406H153v9.562
			H19.125V406.406z M19.125,435.094v-9.562H153v9.562H19.125z"/>
		<path d="M401.625,100.406v372.938h9.562H573.75V100.406H411.188H401.625z M420.75,138.656h133.875v9.562H420.75V138.656z
			 M420.75,157.781h133.875v9.562H420.75V157.781z M420.75,176.906h133.875v9.562H420.75V176.906z M420.75,196.031h133.875v9.562
			H420.75V196.031z M420.75,215.156h133.875v9.562H420.75V215.156z M420.75,234.281h133.875v9.562H420.75V234.281z M420.75,253.406
			h133.875v9.562H420.75V253.406z M420.75,310.781h133.875v9.562H420.75V310.781z M420.75,329.906h133.875v9.562H420.75V329.906z
			 M420.75,349.031h133.875v9.562H420.75V349.031z M420.75,368.156h133.875v9.562H420.75V368.156z M420.75,387.281h133.875v9.562
			H420.75V387.281z M420.75,406.406h133.875v9.562H420.75V406.406z M420.75,425.531h133.875v9.562H420.75V425.531z"/>
	</g>
</g>
<g>
</g>
<g>
</g>
<g>
</g>
<g>
</g>
<g>
</g>
<g>
</g>
<g>
</g>
<g>
</g>
<g>
</g>
<g>
</g>
<g>
</g>
<g>
</g>
<g>
</g>
<g>
</g>
<g>
</g>
</svg>
